icons/delete/delete-forward.svg

<svg width="14" height="14" viewBox="0 0 14 14" fill="none" xmlns="http://www.w3.org/2000/svg">
<path d="M4.25365 8.74635L7.75 5.25M7.75 8.75L4.25 5.25" stroke="red" stroke-linecap="round" stroke-linejoin="round"/>
<path d="M8.79289 3.29289L11.7929 6.29289C12.1834 6.68342 12.1834 7.31658 11.7929 7.70711L8.79289 10.7071C8.60536 10.8946 8.351 11 8.08579 11H3C2.44772 11 2 10.5523 2 10V4C2 3.44772 2.44772 3 3 3H8.08579C8.351 3 8.60536 3.10536 8.79289 3.29289Z" stroke="red" stroke-linecap="round" stroke-linejoin="round"/>
</svg>

<svg xmlns="http://www.w3.org/2000/svg" width="14" height="14" fill="none" viewBox="0 0 14 14"><path stroke="red" stroke-linecap="round" stroke-linejoin="round" d="M4.254 8.746 7.75 5.25m0 3.5-3.5-3.5m4.543-1.957 3 3a1 1 0 0 1 0 1.414l-3 3a1 1 0 0 1-.707.293H3a1 1 0 0 1-1-1V4a1 1 0 0 1 1-1h5.086a1 1 0 0 1 .707.293"/></svg>
